!!! OTL: Literature85
!!! Chapter: 5
!!! Section: II
!!! Page: 363
!!! Mode: 
!!! Encoder: ESM
**kern
*staff1
*I"Piano
=1-
*clefG2
*k[f#c#g#d#a#e#]
*F#:
*met(c|)
*M2/2
2.r
4c#/
=2
4f#/
4a#/
4cc#\
8.a#/L
16f#/Jk
=3
4ff#\
8.dd#\L
16b\Jk
4cc#\
8.a#/L
16f#/Jk
=4
4e#/
4f#/
4b\
4a#/
=5
4.g#/
16b/LL
16a#/JJ
8g#/
8r
4c#/
=6
4f#/
4a#/
4cc#\
8.a#/L
16f#/Jk
=7
4ff#\
8.dd#\L
16b\Jk
4cc#\
8.a#/L
16f#/Jk
=8
!!linebreak:original
2dd#\
8d#/L
8e#/
8f#/
8g#/J
=9
2a#/
a#q/
8.g#/L
16f#/K
8.g#/
16a#/Jk
=10
4f#/
4r
4r
4r
==
*-
